src/icons/easel.svg

<svg xmlns="http://www.w3.org/2000/svg" width="512" height="512" viewBox="0 0 512 512">
    <path d="M173.3 352.4l-20.1 57.1h-22.9l20.6-57.1h22.4zm187.9 0l20.6 57.1h-22.9l-20.1-57.1h22.4zm-93.7 0v34.3h-22.9v-34.3h22.9zm137.1-217.2c6.3 0 11.4 5.1 11.4 11.4v182.9c0 6.3-5.1 11.4-11.4 11.4H107.3c-6.3 0-11.3-5.1-11.3-11.4V146.6c0-6.3 5.1-11.4 11.4-11.4zm-11.4 22.9H118.9v160h274.3v-160zM370 177.55v120H142v-120h228zM266.6 89.5l12.3 34.3h-45.7l12.4-34.3h21z"/>
</svg>

<?xml version="1.0" encoding="UTF-8"?>
<svg width="512px" height="512px" viewBox="0 0 512 512" version="1.1" xmlns="http://www.w3.org/2000/svg" xmlns:xlink="http://www.w3.org/1999/xlink">
    <!-- Generator: Sketch 62 (91390) - https://sketch.com -->
    <title>easel</title>
    <desc>Created with Sketch.</desc>
    <g id="easel" stroke="none" stroke-width="1" fill="none" fill-rule="evenodd">
        <path d="M173.3,352.4 L153.2,409.5 L130.3,409.5 L150.9,352.4 L173.3,352.4 Z M361.2,352.4 L381.8,409.5 L358.9,409.5 L338.8,352.4 L361.2,352.4 Z M267.5,352.4 L267.5,386.7 L244.6,386.7 L244.6,352.4 L267.5,352.4 Z M404.6,135.2 C410.9,135.2 416,140.3 416,146.6 L416,146.6 L416,329.5 C416,335.8 410.9,340.9 404.6,340.9 L404.6,340.9 L107.3,340.9 C101,340.9 96,335.8 96,329.5 L96,329.5 L96,146.6 C96,140.3 101.1,135.2 107.4,135.2 L107.4,135.2 Z M393.2,158.1 L118.9,158.1 L118.9,318.1 L393.2,318.1 L393.2,158.1 Z M370,177.55 L370,297.55 L142,297.55 L142,177.55 L370,177.55 Z M266.6,89.5 L278.9,123.8 L233.2,123.8 L245.6,89.5 L266.6,89.5 Z" id="Combined-Shape" fill="#000000" fill-rule="nonzero"></path>
    </g>
</svg>
